X:1
T:[ID 8-88]
T:[ID 8-88]
T:Bezeichnung standardisiert: Walzer Waltzer
T:Urheber unbekannt Erstbeleg: 1792 (Datum in der schriftlichen Quelle) Datum in der hier transkribierten schriftlichen Quelle: 1796
C:Urheber unbekannt
C:Erstbeleg: 1792 (Datum in der schriftlichen Quelle)
C:Datum in der hier transkribierten schriftlichen Quelle: 1796
L:1/8
M:3/8
K:D
V:1 treble 
V:1
 fff | gg/f/g/e/ | aaf | gge | fff | gg/f/g/e/ | d/c/B/A/B/c/ | d3 :: eae | f2 b | a/^g/f/e/f/g/ | %11
 aaa | eae | f2 b | a/^g/f/e/f/g/ | a3"^1)" :| !fermata!gg/f/g/e/ | fad | d/c/B/A/B/c/ | dfd | %20
 gg/f/g/e/ | fad | d/c/B/A/B/c/ | d3 :| %24

